icons/24x24_folder_filled.svg

<svg xmlns="http://www.w3.org/2000/svg" width="24" height="24" viewBox="0 0 24 24">
  <path fill-rule="evenodd" d="M11.4171635,6 L20,6 C21.1045695,6 22,6.8954305 22,8 L22,18 C22,19.1045695 21.1045695,20 20,20 L4,20 C2.8954305,20 2,19.1045695 2,18 L2,6 C2,4.8954305 2.8954305,4 4,4 L9.06812872,4 C9.71691723,4 10.3253958,4.31470894 10.7003348,4.84418723 L11.4171635,6 Z M13.9612497,10 L20,10 L20,8 L12.1612497,8 L13.9612497,10 Z"/>
</svg>

<svg width="24" height="24" fill="none" xmlns="http://www.w3.org/2000/svg"><path fill-rule="evenodd" clip-rule="evenodd" d="M11.417 6H20a2 2 0 0 1 2 2v10a2 2 0 0 1-2 2H4a2 2 0 0 1-2-2V6a2 2 0 0 1 2-2h5.068a2 2 0 0 1 1.632.844L11.417 6Zm2.544 4H20V8h-7.839l1.8 2Z" fill="#000"/></svg>
